teeny/solid/double-caret-right.svg

<svg width="15" height="15" viewBox="0 0 15 15" fill="none" xmlns="http://www.w3.org/2000/svg">
<path fill-rule="evenodd" clip-rule="evenodd" d="M1.47383 0.293396L9.23481 7.50002L1.47383 14.7066L0.793381 13.9738L7.7652 7.50002L0.793381 1.02619L1.47383 0.293396ZM6.97383 0.293396L14.7348 7.50002L6.97383 14.7066L6.29338 13.9738L13.2652 7.50002L6.29338 1.02619L6.97383 0.293396Z" fill="black"/>
</svg>

<svg viewBox="0 0 15 15" xmlns="http://www.w3.org/2000/svg"><path fill-rule="evenodd" d="M1.47.29l7.76 7.2 -7.77 7.2 -.69-.74 6.97-6.48L.76.99l.68-.74Zm5.5 0l7.76 7.2 -7.77 7.2 -.69-.74 6.97-6.48L6.26.99l.68-.74Z"/></svg>
